X: 27482
T: Molly Put The Kettle On
R: reel
M: 4/4
K: Adorian
||B|(3cec ed cAAc|Bcdc BGAB|(3cec ed cAAG|ED (3EFG A3 B|
(3cec ed cAAc|Bcdc BGAB|(3cec BA (3BdB AG|ED (3EFG A3||
B|cdef g2 (3efg|aged cAAB|cdef g2 (3efg|ag (3efg a2 AB|
cdef g2 (3efg|aged cAAB|(3cec ed cAAG|ED (3EFG A3||

